X:20
T:An Seanduine Crom
T:The Stooped Old Man
B:Joyce, P. W.; "Old Irish Folk Music and Songs"
R:jig
H:  From the whistling of Joe Martin of Kilfinane, about 1852.  Different from
H:"Seanduine Cam," or Seanduine Crom," Stanford-Petrie, No. 1225.  Compare
H:this with "Thamama Hulla," the air of Moore's song "Like the bright lamp
H:that shone on Kildare's holy fane."
L:1/8
M:6/8
K:F
"Mod.: time well-marked"\
(3F/G/A/|BBB AAA|GAF D2 C|FFF AGF|G2 G G2 A|
BBB AAA|FAF D2 C|CDF AFG|F2 F F2||
((3F/A/c/)|_e2 f e2 d|c2 c def|B2 B A2 A|G2 G GAF|
BBB AAA|FAF D2 C|FFF AFG|F2 F F2||

